X: 2
T: The Old Copperplate
R: reel
M: 4/4
L: 1/8
K: Ador
A2 EA cA A2|aged cA A2|G2 DG BG G2|gedc BG G2|
A2 EA cA A2| aged cA A2|ABcd ef (3gfe|aged cA A2 :|
ageg a3b|aged cA A2| gfef g3a|gedc BG G2|
ageg a2 eg|aged cA A2|ABcd ef (3gfe|aged cA A2 :|


Tune 410	Setting 410

